libs/ui/packages/crypto-icons/src/svg/START.svg

<svg width="24" height="24" viewBox="0 0 24 24" fill="none">
<path fill-rule="evenodd" clip-rule="evenodd" d="M15.8019 14.1674C15.7921 15.7229 14.8936 17.0474 13.4604 17.5911C13.1244 17.7186 12.7748 17.8124 12.4268 17.8994C12.2191 17.9519 12.1058 18.0546 12.0893 18.2819C12.0683 18.5684 12.0391 18.8541 11.9993 19.1369C11.9513 19.4714 11.8366 19.5479 11.5291 19.4744C10.9996 19.3484 10.9426 19.2629 11.0131 18.7071C11.0191 18.6599 11.0258 18.6126 11.0311 18.5646C11.0836 18.1094 11.0191 18.0441 10.5833 18.0659C10.3876 18.0756 10.3058 18.1724 10.2871 18.3644C10.2616 18.6404 10.2346 18.9171 10.1896 19.1894C10.1446 19.4684 10.0276 19.5374 9.7591 19.4789C9.1861 19.3551 9.1441 19.2914 9.2191 18.6854C9.3136 17.9331 9.31135 17.9414 8.61685 17.7321C8.30935 17.6391 8.01085 17.5101 7.7101 17.3909C7.5271 17.3189 7.4671 17.1824 7.5166 16.9791C7.5796 16.7204 7.6231 16.4556 7.6771 16.1939C7.7701 15.7476 7.9861 15.6126 8.3986 15.7746C9.1291 16.0619 9.8791 16.2389 10.6598 16.2576C11.3641 16.2749 12.0608 16.2284 12.7036 15.8826C13.1281 15.6539 13.4401 15.3186 13.5968 14.8379C13.8293 14.1239 13.6208 13.5464 12.9518 13.2591C12.4006 13.0229 11.8088 12.8916 11.2531 12.6651C10.7596 12.4641 10.2466 12.2631 9.8206 11.9474C8.86285 11.2394 8.6956 10.1924 8.9056 9.07414C9.1441 7.81339 9.91585 6.99589 11.0611 6.56164C11.3663 6.44689 11.5043 6.28639 11.5096 5.94364C11.5141 5.57239 11.5733 5.20114 11.6183 4.83139C11.6528 4.54714 11.7638 4.46764 12.0293 4.51114C12.5933 4.60339 12.6608 4.69264 12.6053 5.27839C12.5836 5.50714 12.5648 5.73589 12.5378 5.96314C12.5153 6.15439 12.5761 6.24214 12.7763 6.24814C13.2331 6.26164 13.2526 6.25339 13.3066 5.78089C13.3411 5.47714 13.3666 5.17264 13.4079 4.86964C13.4529 4.53364 13.5616 4.45714 13.8714 4.52014C14.3926 4.62739 14.4503 4.70689 14.3993 5.24989C14.3768 5.48764 14.3656 5.72764 14.3244 5.96239C14.2771 6.23239 14.3596 6.35764 14.6281 6.41989C15.1388 6.53839 15.6444 6.68839 16.1461 6.84439C16.5234 6.96139 16.5384 7.00414 16.4656 7.39639C16.4229 7.63114 16.3801 7.86664 16.3246 8.09839C16.2211 8.53489 16.0036 8.66464 15.5881 8.52514C14.8771 8.28514 14.1631 8.06839 13.4093 8.03614C12.7493 8.00839 12.0983 8.01814 11.5253 8.43289C10.7183 9.01639 10.7138 10.2029 11.5718 10.7024C12.1178 11.0204 12.7486 11.1824 13.3404 11.4164C13.7011 11.5589 14.0716 11.6819 14.4181 11.8544C15.3466 12.3179 15.8124 13.0926 15.8019 14.1681" fill="#01AEF0"/>
</svg>

<svg width="24" height="24" viewBox="0 0 24 24" fill="none"><path fill="#01aef0" fill-rule="evenodd" d="M15.802 14.167c-.01 1.556-.908 2.88-2.342 3.424a9 9 0 0 1-1.033.308c-.208.053-.321.156-.338.383q-.03.43-.09.855c-.048.334-.162.41-.47.337-.53-.126-.586-.211-.516-.767q.01-.07.018-.142c.053-.456-.012-.52-.448-.5-.195.01-.277.107-.296.3-.025.275-.052.552-.097.824-.045.28-.162.348-.43.29-.574-.124-.616-.188-.54-.794.094-.752.091-.744-.603-.953-.308-.093-.606-.222-.907-.341-.183-.072-.243-.209-.193-.412.063-.259.106-.523.16-.785.093-.446.31-.581.722-.42.73.288 1.48.465 2.26.484.705.017 1.402-.03 2.045-.375.424-.23.736-.564.893-1.045.232-.714.024-1.292-.645-1.579-.551-.236-1.143-.367-1.699-.594-.493-.2-1.006-.402-1.432-.718-.958-.708-1.125-1.755-.915-2.873.238-1.26 1.01-2.078 2.155-2.512.305-.115.443-.276.449-.618.004-.372.063-.743.108-1.113.035-.284.146-.363.411-.32.564.092.632.182.576.767-.021.23-.04.458-.067.685-.023.191.038.28.238.285.457.014.477.005.53-.467.035-.304.06-.608.102-.911.045-.336.154-.413.463-.35.522.107.58.187.528.73-.022.238-.033.478-.075.712-.047.27.036.396.304.458.51.118 1.016.268 1.518.424.377.117.392.16.32.552-.043.235-.086.47-.141.702-.104.437-.321.567-.737.427-.71-.24-1.425-.457-2.179-.489-.66-.028-1.31-.018-1.884.397-.807.583-.811 1.77.047 2.27.546.317 1.177.48 1.768.713.361.143.732.266 1.078.438.929.464 1.394 1.239 1.384 2.314" clip-rule="evenodd"/></svg>
